<?xml version="1.0" encoding="UTF-8"?>
<map version="1.10" tiledversion="1.12.2" orientation="orthogonal" renderorder="right-down" width="32" height="32" tilewidth="16" tileheight="16" infinite="0" nextlayerid="7" nextobjectid="84">
 <tileset firstgid="1" source="terrain.tsx"/>
 <tileset firstgid="67" source="unit_1.tsx"/>
 <tileset firstgid="69" source="building_1.tsx"/>
 <tileset firstgid="71" source="building_4.tsx"/>
 <tileset firstgid="73" source="unit_3.tsx"/>
 <tileset firstgid="75" source="building_2.tsx"/>
 <tileset firstgid="77" source="unit_4.tsx"/>
 <tileset firstgid="81" source="building_3.tsx"/>
 <tileset firstgid="99" source="spacebodies.tsx"/>
 <objectgroup id="6" name="Space">
  <object id="71" gid="99" x="112" y="256" width="16" height="16"/>
  <object id="72" gid="101" x="400" y="192" width="16" height="16"/>
  <object id="73" gid="101" x="160" y="64" width="16" height="16"/>
  <object id="74" gid="100" x="192" y="96" width="16" height="16"/>
  <object id="75" gid="100" x="80" y="48" width="16" height="16"/>
  <object id="76" gid="102" x="384" y="240" width="16" height="16"/>
  <object id="77" gid="103" x="448" y="144" width="16" height="16"/>
  <object id="78" gid="104" x="48" y="240" width="16" height="16"/>
  <object id="79" gid="104" x="66.5" y="464.5" width="16" height="16"/>
  <object id="82" gid="103" x="464" y="256" width="16" height="16"/>
  <object id="83" gid="99" x="16" y="416" width="16" height="16"/>
 </objectgroup>
 <layer id="1" name="Terrain_1" width="32" height="32">
  <data encoding="csv">
0,0,0,0,0,0,0,0,0,0,0,0,0,0,6,5,5,5,3,5,5,5,5,5,3,5,5,5,5,8,0,0,
0,0,0,0,0,0,0,0,0,0,0,0,0,0,6,5,5,5,3,5,5,5,5,5,3,5,5,5,5,8,0,0,
7,7,0,0,0,0,0,0,0,0,0,0,0,0,6,5,5,5,3,5,5,5,5,5,3,5,5,5,5,8,0,0,
5,3,8,0,0,0,0,0,0,0,0,0,0,0,6,14,5,5,23,13,5,5,5,5,3,5,5,31,9,11,0,0,
5,3,20,7,7,0,0,0,0,0,0,0,0,0,10,30,5,5,5,23,4,17,4,4,24,5,5,8,0,0,0,0,
5,3,5,5,5,20,7,0,0,0,0,0,0,0,0,6,5,5,5,5,5,27,5,5,5,5,31,11,0,0,0,0,
5,3,5,5,5,5,5,8,0,0,0,0,0,0,0,10,9,9,30,5,5,5,5,5,5,5,8,0,0,0,0,0,
4,18,4,4,13,5,5,20,7,7,7,7,7,7,7,7,7,7,19,5,2,15,5,5,31,9,11,0,0,0,0,0,
5,5,5,5,29,4,4,4,4,17,4,4,4,4,4,4,4,4,4,4,4,24,5,5,8,0,0,0,0,0,0,0,
5,5,5,5,3,5,31,9,30,3,31,9,9,9,9,9,9,9,30,5,5,5,5,5,8,0,0,0,0,0,0,0,
5,12,4,4,24,5,8,0,6,3,8,0,0,0,0,0,0,0,10,9,9,9,9,9,11,0,0,0,0,0,0,0,
4,24,31,9,9,9,11,0,6,3,8,0,0,0,0,0,0,0,0,0,0,0,0,0,0,0,0,0,0,0,0,0,
5,5,8,0,0,0,0,0,6,3,8,0,0,0,0,0,0,0,0,0,0,0,0,0,0,0,0,0,0,0,0,0,
9,9,11,0,0,0,0,0,6,3,8,0,0,0,0,0,7,7,7,0,0,0,0,0,0,0,0,0,0,0,0,0,
0,0,0,0,0,0,0,0,6,3,8,0,0,0,0,6,5,5,5,8,0,0,0,0,0,0,0,0,0,0,0,0,
0,0,0,0,0,0,0,0,6,3,8,0,0,0,0,6,5,5,5,8,0,0,0,0,0,0,0,0,0,0,0,0,
7,7,7,7,7,7,0,0,6,3,8,0,0,0,0,10,30,5,5,8,0,0,0,0,0,0,0,0,0,0,0,0,
5,5,5,5,5,5,20,7,19,3,8,0,0,0,0,0,10,9,9,11,0,0,0,0,0,0,0,0,0,0,0,0,
5,5,5,5,1,5,5,5,5,3,20,7,7,0,0,0,0,0,0,0,0,0,0,0,0,7,7,7,0,0,0,0,
4,4,4,4,13,5,5,5,5,3,5,5,5,8,0,0,0,0,0,0,0,0,0,0,19,5,5,5,20,7,0,0,
5,5,5,5,3,5,5,5,5,3,5,5,5,8,0,0,0,0,0,0,0,7,7,19,5,5,5,5,5,5,8,0,
9,9,30,5,3,5,1,5,5,3,5,5,2,8,0,0,0,0,0,0,19,5,5,15,5,5,5,5,5,5,20,0,
0,0,6,5,23,4,4,4,4,18,13,1,31,11,0,0,0,0,0,19,5,5,5,3,5,5,5,5,5,5,5,8,
0,0,6,5,5,5,5,5,2,5,3,5,8,0,0,0,0,0,6,5,5,5,5,3,5,5,1,5,5,5,5,8,
0,0,10,9,9,9,9,9,30,5,27,5,8,0,0,7,0,0,6,25,4,4,4,28,5,5,5,5,5,5,5,8,
0,0,0,0,0,0,0,0,10,9,9,9,11,0,6,5,8,0,10,30,5,5,5,23,4,4,4,24,5,5,5,8,
0,0,0,0,0,0,0,0,0,0,0,0,0,0,10,9,11,0,0,10,9,9,9,9,9,9,9,9,9,9,9,11,
0,0,0,0,0,0,0,0,0,0,0,0,0,0,0,0,0,0,0,0,0,0,0,0,0,0,0,0,0,0,0,0,
0,0,0,0,0,0,0,0,0,0,0,0,0,0,0,0,0,0,0,0,0,0,0,0,0,0,0,0,0,0,0,0,
0,0,0,0,0,0,0,0,0,0,0,0,0,0,0,0,0,0,0,0,0,0,0,0,0,0,0,0,0,0,0,0,
0,0,0,0,0,0,0,0,0,0,0,0,0,0,0,0,0,0,0,0,0,0,0,0,0,0,0,0,0,0,0,0,
0,0,0,0,0,0,0,0,0,0,0,0,0,0,0,0,0,0,0,0,0,0,0,0,0,0,0,0,0,0,0,0
</data>
 </layer>
 <layer id="4" name="Terrain_2" width="32" height="32">
  <data encoding="csv">
0,0,0,0,0,0,0,0,0,0,0,0,0,0,0,0,0,0,0,0,6,0,0,0,0,0,0,0,8,0,0,0,
0,0,0,0,0,0,0,0,0,0,0,0,0,0,0,0,0,0,0,0,6,0,0,0,0,0,0,0,8,0,0,0,
0,0,0,0,0,0,0,0,0,0,0,0,0,0,0,0,0,0,0,0,10,30,0,1,0,0,31,9,11,0,0,0,
0,0,0,0,0,0,0,0,0,0,0,0,0,0,0,0,0,0,0,0,0,10,9,0,0,9,11,0,0,0,0,0,
0,0,0,0,0,0,0,0,0,0,0,0,0,0,0,0,0,0,0,0,0,0,0,0,0,0,0,0,0,0,0,0,
0,0,0,0,0,0,0,0,0,0,0,0,0,0,0,0,0,0,0,0,0,0,0,0,0,0,0,0,0,0,0,0,
0,0,0,0,0,0,0,0,0,0,0,0,0,0,0,0,0,0,0,0,0,0,0,0,0,0,0,0,0,0,0,0,
0,0,0,0,0,0,0,0,0,0,0,0,0,0,0,0,0,0,0,0,0,0,0,0,0,0,0,0,0,0,0,0,
0,0,0,0,0,0,0,0,0,0,0,0,0,0,0,0,0,0,0,0,0,0,0,0,0,0,0,0,0,0,0,0,
0,0,0,0,0,0,0,0,0,0,0,0,0,0,0,0,0,0,0,0,0,0,0,0,0,0,0,0,0,0,0,0,
0,0,0,0,0,0,0,0,0,0,0,0,0,0,0,0,0,0,0,0,0,0,0,0,0,0,0,0,0,0,0,0,
0,0,0,0,0,0,0,0,0,0,0,0,0,0,0,0,0,0,0,0,0,0,0,0,0,0,0,0,0,0,0,0,
0,0,0,0,0,0,0,0,0,0,0,0,0,0,0,0,0,0,0,0,0,0,0,0,0,0,0,0,0,0,0,0,
0,0,0,0,0,0,0,0,0,0,0,0,0,0,0,0,0,0,0,0,0,0,0,0,0,0,0,0,0,0,0,0,
0,0,0,0,0,0,0,0,0,0,0,0,0,0,0,0,0,0,0,0,0,0,0,0,0,0,0,0,0,0,0,0,
0,0,0,0,0,0,0,0,0,0,0,0,0,0,0,0,0,0,0,0,0,0,0,0,0,0,0,0,0,0,0,0,
0,0,0,0,0,0,0,0,0,0,0,0,0,0,0,0,0,0,0,0,0,0,0,0,0,0,0,0,0,0,0,0,
0,0,0,0,0,0,0,0,0,0,0,0,0,0,0,0,0,0,0,0,0,0,0,0,0,0,0,0,0,0,0,0,
0,0,0,0,0,0,0,0,0,0,0,0,0,0,0,0,0,0,0,0,0,0,0,0,0,0,0,0,0,0,0,0,
0,0,0,0,0,0,0,0,0,0,0,0,0,0,0,0,0,0,0,0,0,0,0,0,0,0,0,0,0,0,0,0,
0,0,0,0,0,0,0,0,0,0,0,0,0,0,0,0,0,0,0,0,0,0,0,0,0,0,0,0,0,0,0,0,
0,0,0,0,0,0,0,0,0,0,0,0,0,0,0,0,0,0,0,0,0,0,0,0,0,0,0,0,0,0,0,0,
0,0,0,0,0,0,0,0,0,0,0,0,0,0,0,0,0,0,0,0,0,0,0,0,0,0,0,0,0,0,0,0,
0,0,0,0,0,0,0,0,0,0,0,0,0,0,0,0,0,0,0,0,0,0,0,0,0,0,0,0,0,0,0,0,
0,0,0,0,0,0,0,0,0,0,0,0,0,0,0,0,0,0,0,0,0,0,0,0,0,0,0,0,0,0,0,0,
0,0,0,0,0,0,0,0,0,0,0,0,0,0,0,0,0,0,0,0,0,0,0,0,0,0,0,0,0,0,0,0,
0,0,0,0,0,0,0,0,0,0,0,0,0,0,0,0,0,0,0,0,0,0,0,0,0,0,0,0,0,0,0,0,
0,0,0,0,0,0,0,0,0,0,0,0,0,0,0,0,0,0,0,0,0,0,0,0,0,0,0,0,0,0,0,0,
0,0,0,0,0,0,0,0,0,0,0,0,0,0,0,0,0,0,0,0,0,0,0,0,0,0,0,0,0,0,0,0,
0,0,0,0,0,0,0,0,0,0,0,0,0,0,0,0,0,0,0,0,0,0,0,0,0,0,0,0,0,0,0,0,
0,0,0,0,0,0,0,0,0,0,0,0,0,0,0,0,0,0,0,0,0,0,0,0,0,0,0,0,0,0,0,0,
0,0,0,0,0,0,0,0,0,0,0,0,0,0,0,0,0,0,0,0,0,0,0,0,0,0,0,0,0,0,0,0
</data>
 </layer>
 <objectgroup id="2" name="Building">
  <object id="2" gid="69" x="160" y="336" width="32" height="32">
   <properties>
    <property name="Destructible" type="bool" value="true"/>
   </properties>
  </object>
  <object id="3" gid="67" x="192" y="320" width="16" height="16">
   <properties>
    <property name="Destructible" type="bool" value="true"/>
   </properties>
  </object>
  <object id="4" gid="67" x="192" y="336" width="16" height="16">
   <properties>
    <property name="Destructible" type="bool" value="true"/>
   </properties>
  </object>
  <object id="5" gid="67" x="96" y="320" width="16" height="16">
   <properties>
    <property name="Destructible" type="bool" value="true"/>
   </properties>
  </object>
  <object id="6" gid="71" x="112" y="336" width="16" height="48">
   <properties>
    <property name="Destructible" type="bool" value="true"/>
   </properties>
  </object>
  <object id="7" gid="71" x="128" y="336" width="16" height="48">
   <properties>
    <property name="Destructible" type="bool" value="true"/>
   </properties>
  </object>
  <object id="8" gid="73" x="112" y="384" width="16" height="16">
   <properties>
    <property name="Destructible" type="bool" value="true"/>
   </properties>
  </object>
  <object id="9" gid="73" x="80" y="384" width="16" height="16">
   <properties>
    <property name="Destructible" type="bool" value="true"/>
   </properties>
  </object>
  <object id="10" gid="73" x="240" y="416" width="16" height="16">
   <properties>
    <property name="Destructible" type="bool" value="true"/>
   </properties>
  </object>
  <object id="11" gid="75" x="320" y="384" width="32" height="32">
   <properties>
    <property name="Destructible" type="bool" value="true"/>
   </properties>
  </object>
  <object id="12" gid="69" x="240" y="32" width="32" height="32">
   <properties>
    <property name="Destructible" type="bool" value="true"/>
   </properties>
  </object>
  <object id="13" gid="69" x="256" y="64" width="32" height="32">
   <properties>
    <property name="Destructible" type="bool" value="false"/>
   </properties>
  </object>
  <object id="14" gid="73" x="304" y="48" width="16" height="16"/>
  <object id="15" gid="73" x="320" y="64" width="16" height="16"/>
  <object id="16" gid="77" x="304" y="160" width="16" height="16"/>
  <object id="17" gid="77" x="368" y="160" width="16" height="16"/>
  <object id="18" gid="75" x="416" y="32" width="32" height="32">
   <properties>
    <property name="Destructible" type="bool" value="true"/>
   </properties>
  </object>
  <object id="19" gid="67" x="352" y="32" width="16" height="16">
   <properties>
    <property name="Destructible" type="bool" value="true"/>
   </properties>
  </object>
  <object id="20" gid="75" x="352" y="144" width="32" height="32">
   <properties>
    <property name="Destructible" type="bool" value="true"/>
   </properties>
  </object>
  <object id="21" gid="94" x="256" y="96" width="16" height="16"/>
  <object id="22" gid="94" x="272" y="96" width="16" height="16"/>
  <object id="23" gid="94" x="288" y="96" width="16" height="16"/>
  <object id="24" gid="83" x="304" y="96" width="16" height="16"/>
  <object id="25" gid="93" x="304" y="112" width="16" height="16"/>
  <object id="26" gid="94" x="320" y="112" width="16" height="16"/>
  <object id="27" gid="88" x="336" y="112" width="16" height="16"/>
  <object id="28" gid="94" x="352" y="112" width="16" height="16"/>
  <object id="29" gid="94" x="368" y="112" width="16" height="16"/>
  <object id="30" gid="94" x="384" y="112" width="16" height="16"/>
  <object id="31" gid="95" x="400" y="112" width="16" height="16"/>
  <object id="32" gid="81" x="400" y="96" width="16" height="16"/>
  <object id="33" gid="67" x="384" y="96" width="16" height="16">
   <properties>
    <property name="Destructible" type="bool" value="true"/>
   </properties>
  </object>
  <object id="34" gid="73" x="352" y="160" width="16" height="16">
   <properties>
    <property name="Destructible" type="bool" value="true"/>
   </properties>
  </object>
  <object id="35" gid="77" x="80" y="176" width="16" height="16"/>
  <object id="36" gid="77" x="16" y="208" width="16" height="16"/>
  <object id="37" gid="69" x="80" y="128" width="32" height="32">
   <properties>
    <property name="Destructible" type="bool" value="true"/>
   </properties>
  </object>
  <object id="38" gid="75" x="32" y="112" width="32" height="32">
   <properties>
    <property name="Destructible" type="bool" value="true"/>
   </properties>
  </object>
  <object id="41" gid="75" x="16" y="160" width="32" height="32">
   <properties>
    <property name="Destructible" type="bool" value="true"/>
   </properties>
  </object>
  <object id="42" gid="1" x="48" y="160" width="16" height="16"/>
  <object id="43" gid="1" x="0" y="96" width="16" height="16"/>
  <object id="44" gid="81" x="400" y="336" width="16" height="16"/>
  <object id="45" gid="82" x="416" y="336" width="16" height="16"/>
  <object id="48" gid="82" x="432" y="336" width="16" height="16"/>
  <object id="49" gid="82" x="448" y="336" width="16" height="16"/>
  <object id="50" gid="83" x="464" y="336" width="16" height="16"/>
  <object id="51" gid="89" x="464" y="352" width="16" height="16"/>
  <object id="52" gid="89" x="464" y="368" width="16" height="16"/>
  <object id="53" gid="95" x="464" y="400" width="16" height="16"/>
  <object id="54" gid="89" x="464" y="384" width="16" height="16"/>
  <object id="55" gid="94" x="448" y="400" width="16" height="16"/>
  <object id="56" gid="94" x="432" y="400" width="16" height="16"/>
  <object id="57" gid="94" x="416" y="400" width="16" height="16"/>
  <object id="58" gid="93" x="400" y="400" width="16" height="16"/>
  <object id="59" gid="87" x="400" y="384" width="16" height="16"/>
  <object id="60" gid="87" x="400" y="352" width="16" height="16"/>
  <object id="61" gid="87" x="400" y="368" width="16" height="16"/>
  <object id="62" gid="88" x="432" y="400" width="16" height="16"/>
  <object id="63" gid="75" x="432" y="368" width="32" height="32">
   <properties>
    <property name="Destructible" type="bool" value="true"/>
   </properties>
  </object>
  <object id="65" gid="73" x="320" y="416" width="16" height="16">
   <properties>
    <property name="Destructible" type="bool" value="true"/>
   </properties>
  </object>
  <object id="66" gid="73" x="352" y="416" width="16" height="16">
   <properties>
    <property name="Destructible" type="bool" value="true"/>
   </properties>
  </object>
  <object id="67" gid="73" x="448" y="416" width="16" height="16">
   <properties>
    <property name="Destructible" type="bool" value="true"/>
   </properties>
  </object>
  <object id="68" gid="69" x="272" y="256" width="32" height="32">
   <properties>
    <property name="Destructible" type="bool" value="true"/>
   </properties>
  </object>
  <object id="69" gid="73" x="288" y="272" width="16" height="16">
   <properties>
    <property name="Destructible" type="bool" value="true"/>
   </properties>
  </object>
  <object id="70" gid="73" x="256" y="256" width="16" height="16">
   <properties>
    <property name="Destructible" type="bool" value="true"/>
   </properties>
  </object>
 </objectgroup>
</map>
