<?xml version="1.0" encoding="UTF-8"?>
<map version="1.10" tiledversion="1.12.2" orientation="orthogonal" renderorder="right-down" width="16" height="16" tilewidth="16" tileheight="16" infinite="0" nextlayerid="5" nextobjectid="18">
 <tileset firstgid="1" source="../tilesets/terrain.tsx"/>
 <tileset firstgid="67" source="../tilesets/building_4.tsx"/>
 <tileset firstgid="69" source="../tilesets/building_1.tsx"/>
 <tileset firstgid="71" source="../tilesets/building_2.tsx"/>
 <tileset firstgid="73" source="../tilesets/unit_4.tsx"/>
 <tileset firstgid="77" source="../tilesets/unit_3.tsx"/>
 <tileset firstgid="79" source="../tilesets/unit_1.tsx"/>
 <tileset firstgid="81" source="../tilesets/unit_2.tsx"/>
 <objectgroup id="4" name="Space"/>
 <layer id="1" name="Terrain_1" width="16" height="16">
  <data encoding="csv">
0,0,0,0,0,0,0,0,0,0,0,0,0,0,0,0,
0,7,7,7,7,7,7,7,7,0,0,0,0,0,0,0,
6,5,5,5,12,5,5,5,5,20,7,7,0,0,0,0,
6,5,5,5,3,5,5,5,5,5,5,15,20,7,7,0,
6,2,5,5,3,5,5,5,5,5,5,3,5,5,5,8,
6,5,5,14,3,5,5,5,5,5,1,3,5,5,1,8,
6,25,4,4,16,4,4,4,4,4,4,18,13,5,31,11,
6,5,5,5,3,5,5,5,1,5,5,5,3,5,8,0,
6,1,5,5,3,5,31,9,9,9,30,5,27,5,8,0,
10,30,12,4,24,2,8,0,0,0,10,9,9,9,11,0,
0,6,3,5,5,31,11,0,0,0,0,0,0,0,0,0,
0,6,27,5,5,8,0,0,0,0,0,0,0,0,0,0,
0,10,9,9,9,11,0,0,0,0,0,0,0,0,0,0,
0,0,0,0,0,0,0,0,0,0,0,0,0,0,0,0,
0,0,0,0,0,0,0,0,0,0,0,0,0,0,0,0,
0,0,0,0,0,0,0,0,0,0,0,0,0,0,0,0
</data>
 </layer>
 <layer id="2" name="Terrain_2" width="16" height="16">
  <data encoding="csv">
0,0,0,0,0,0,7,7,7,0,0,0,0,0,0,0,
0,0,0,0,0,6,5,5,5,8,0,0,0,0,0,0,
0,0,0,0,0,4,4,4,26,0,0,0,0,0,0,0,
0,0,0,0,0,6,5,5,5,8,0,0,0,0,0,0,
0,0,0,0,0,10,30,5,5,8,0,0,0,0,0,0,
0,0,0,0,0,0,10,9,9,11,0,0,0,0,0,0,
0,0,0,0,0,0,0,0,0,0,0,0,0,0,0,0,
0,0,0,0,0,0,0,0,0,0,0,0,0,0,0,0,
0,0,0,0,0,0,0,0,0,0,0,0,0,0,0,0,
0,0,0,0,0,0,0,0,0,0,0,0,0,0,0,0,
0,0,0,0,0,0,0,0,0,0,0,0,0,0,0,0,
0,0,0,0,0,0,0,0,0,0,0,0,0,0,0,0,
0,0,0,0,0,0,0,0,0,0,0,0,0,0,0,0,
0,0,0,0,0,0,0,0,0,0,0,0,0,0,0,0,
0,0,0,0,0,0,0,0,0,0,0,0,0,0,0,0,
0,0,0,0,0,0,0,0,0,0,0,0,0,0,0,0
</data>
 </layer>
 <objectgroup id="3" name="Building">
  <object id="2" gid="67" x="208" y="112" width="16" height="48">
   <properties>
    <property name="Destructible" type="bool" value="true"/>
   </properties>
  </object>
  <object id="3" gid="67" x="32" y="80" width="16" height="48">
   <properties>
    <property name="Destructible" type="bool" value="true"/>
   </properties>
  </object>
  <object id="5" gid="69" x="32" y="144" width="32" height="32">
   <properties>
    <property name="Destructible" type="bool" value="true"/>
   </properties>
  </object>
  <object id="9" gid="73" x="176" y="144" width="16" height="16"/>
  <object id="10" gid="77" x="96" y="128" width="16" height="16">
   <properties>
    <property name="Destructible" type="bool" value="true"/>
   </properties>
  </object>
  <object id="11" gid="77" x="144" y="128" width="16" height="16">
   <properties>
    <property name="Destructible" type="bool" value="true"/>
   </properties>
  </object>
  <object id="14" gid="69" x="112" y="80" width="32" height="32">
   <properties>
    <property name="Destructible" type="bool" value="true"/>
   </properties>
  </object>
  <object id="15" gid="79" x="160" y="80" width="16" height="16">
   <properties>
    <property name="Destructible" type="bool" value="true"/>
   </properties>
  </object>
  <object id="16" gid="81" x="64" y="192" width="16" height="16">
   <properties>
    <property name="Destructible" type="bool" value="true"/>
   </properties>
  </object>
 </objectgroup>
</map>
