<?xml version="1.0" encoding="UTF-8"?>
<map version="1.10" tiledversion="1.12.2" orientation="orthogonal" renderorder="right-down" width="16" height="16" tilewidth="16" tileheight="16" infinite="0" nextlayerid="5" nextobjectid="26">
 <tileset firstgid="1" source="../tilesets/terrain.tsx"/>
 <tileset firstgid="67" source="../tilesets/building_1.tsx"/>
 <tileset firstgid="69" source="../tilesets/unit_1.tsx"/>
 <tileset firstgid="71" source="../tilesets/unit_3.tsx"/>
 <tileset firstgid="73" source="../tilesets/spacebodies.tsx"/>
 <tileset firstgid="79" source="../tilesets/building_2.tsx"/>
 <tileset firstgid="81" source="../tilesets/unit_4.tsx"/>
 <objectgroup id="4" name="Space">
  <object id="10" gid="73" x="48" y="224" width="16" height="16"/>
  <object id="13" gid="78" x="240" y="240" width="16" height="16"/>
  <object id="17" gid="74" x="495.333" y="172.667" width="16" height="16"/>
 </objectgroup>
 <layer id="1" name="Terrain_1" width="16" height="16">
  <data encoding="csv">
0,0,0,0,0,0,0,0,0,0,0,0,0,0,0,0,
0,0,0,0,0,0,0,0,0,0,0,0,0,0,0,0,
0,0,0,0,0,0,0,0,0,0,0,0,0,0,0,0,
0,0,0,7,7,0,0,0,0,0,0,0,0,0,0,0,
0,0,19,5,5,20,0,0,0,0,0,0,0,0,0,0,
0,6,2,5,5,1,8,0,0,0,0,0,0,0,0,0,
0,6,5,5,5,5,20,0,0,0,0,0,0,0,0,0,
0,10,9,30,5,2,5,8,0,0,0,0,0,0,0,0,
0,0,0,10,9,9,9,11,0,0,0,0,0,0,0,0,
0,0,0,0,0,0,0,0,0,0,0,0,0,0,0,0,
0,0,0,0,0,0,0,0,0,0,0,0,0,0,0,0,
0,0,0,0,0,0,0,0,0,0,0,0,0,0,0,0,
0,0,0,0,0,0,0,0,0,0,0,0,0,0,0,0,
0,0,0,0,0,0,0,0,0,0,0,0,0,0,0,0,
0,0,0,0,0,0,0,0,0,0,0,0,0,0,0,0,
0,0,0,0,0,0,0,0,0,0,0,0,0,0,0,0
</data>
 </layer>
 <layer id="3" name="Terrain_2" width="16" height="16">
  <data encoding="csv">
0,0,0,0,0,0,0,0,0,0,0,0,0,0,0,0,
0,0,0,0,0,0,0,0,0,0,0,0,0,0,0,0,
0,0,0,0,0,0,0,0,0,0,0,0,0,0,0,0,
0,0,0,0,0,0,0,0,0,0,0,0,0,0,0,0,
0,0,0,0,0,0,0,0,0,0,0,0,0,0,0,0,
0,0,6,0,0,8,0,0,0,0,0,0,0,0,0,0,
0,0,10,9,9,11,0,0,0,0,0,0,0,0,0,0,
0,0,0,0,0,0,0,0,0,0,0,0,0,0,0,0,
0,0,0,0,0,0,0,0,0,0,0,0,0,0,0,0,
0,0,0,0,0,0,0,0,0,0,0,0,0,0,0,0,
0,0,0,0,0,0,0,0,0,0,0,0,0,0,0,0,
0,0,0,0,0,0,0,0,0,0,0,0,0,0,0,0,
0,0,0,0,0,0,0,0,0,0,0,0,0,0,0,0,
0,0,0,0,0,0,0,0,0,0,0,0,0,0,0,0,
0,0,0,0,0,0,0,0,0,0,0,0,0,0,0,0,
0,0,0,0,0,0,0,0,0,0,0,0,0,0,0,0
</data>
 </layer>
 <objectgroup id="2" name="Building">
  <object id="23" gid="71" x="96" y="128" width="16" height="16">
   <properties>
    <property name="Destructible" type="bool" value="true"/>
   </properties>
  </object>
  <object id="24" gid="71" x="64" y="128" width="16" height="16">
   <properties>
    <property name="Destructible" type="bool" value="true"/>
   </properties>
  </object>
  <object id="25" gid="81" x="48" y="96" width="16" height="16"/>
 </objectgroup>
</map>
