<?xml version="1.0" encoding="UTF-8"?>
<map version="1.10" tiledversion="1.12.2" orientation="orthogonal" renderorder="right-down" width="16" height="16" tilewidth="16" tileheight="16" infinite="0" nextlayerid="5" nextobjectid="25">
 <tileset firstgid="1" source="../tilesets/terrain.tsx"/>
 <tileset firstgid="67" source="../tilesets/building_1.tsx"/>
 <tileset firstgid="69" source="../tilesets/unit_1.tsx"/>
 <tileset firstgid="71" source="../tilesets/unit_3.tsx"/>
 <tileset firstgid="73" source="../tilesets/spacebodies.tsx"/>
 <tileset firstgid="79" source="../tilesets/building_4.tsx"/>
 <tileset firstgid="81" source="../tilesets/tank.tsx"/>
 <tileset firstgid="83" source="../tilesets/building_2.tsx"/>
 <objectgroup id="4" name="Space">
  <object id="13" gid="76" x="64" y="224" width="16" height="16"/>
  <object id="14" gid="78" x="32" y="48" width="16" height="16"/>
 </objectgroup>
 <layer id="1" name="Terrain_1" width="16" height="16">
  <data encoding="csv">
0,0,0,0,0,0,0,0,0,0,0,0,0,0,0,0,
0,0,0,0,0,0,0,0,0,0,0,0,0,0,0,0,
0,0,0,0,0,0,0,0,0,0,0,0,0,0,0,0,
0,0,0,0,0,0,0,0,0,0,0,0,0,0,0,0,
0,0,0,0,0,0,0,0,0,0,0,0,0,0,0,0,
0,0,0,0,0,0,0,0,0,0,0,0,0,0,0,0,
0,0,0,0,0,0,0,0,0,0,0,0,0,0,0,0,
0,7,7,7,7,7,7,7,7,7,7,7,7,0,0,0,
6,25,0,4,4,4,4,17,4,4,4,0,13,8,0,0,
6,5,2,5,5,5,5,3,5,5,5,1,3,8,0,0,
6,5,5,5,14,5,5,3,5,5,5,5,3,8,0,0,
0,9,9,9,9,9,30,3,5,5,5,5,3,8,0,0,
0,0,0,0,0,0,6,27,1,5,2,5,3,8,0,0,
0,0,0,0,0,0,10,9,9,30,25,4,24,8,0,0,
0,0,0,0,0,0,0,0,0,10,9,9,9,0,0,0,
0,0,0,0,0,0,0,0,0,0,0,0,0,0,0,0
</data>
 </layer>
 <layer id="3" name="Terrain_2" width="16" height="16">
  <data encoding="csv">
0,0,0,0,0,0,0,0,0,0,0,0,0,0,0,0,
0,0,0,0,0,0,0,0,0,0,0,0,0,0,0,0,
0,0,0,0,0,0,0,0,0,0,0,0,0,0,0,0,
0,0,0,0,0,0,0,0,0,0,0,0,0,0,0,0,
0,0,0,0,0,0,0,0,0,0,0,0,0,0,0,0,
0,0,0,0,0,0,0,0,0,0,0,0,0,0,0,0,
0,0,0,0,0,0,0,0,0,0,0,0,0,0,0,0,
0,0,0,0,0,0,0,0,0,0,0,0,0,0,0,0,
0,0,0,0,0,0,0,0,0,0,0,0,0,0,0,0,
0,0,0,0,0,0,0,0,0,0,0,0,0,0,0,0,
0,0,0,0,0,0,0,0,0,0,0,0,0,0,0,0,
0,0,0,0,0,0,0,0,0,0,0,0,0,0,0,0,
0,0,0,0,0,0,0,0,0,0,0,0,0,0,0,0,
0,0,0,0,0,0,0,0,0,0,0,0,0,0,0,0,
0,0,0,0,0,0,0,0,0,0,0,0,0,0,0,0,
0,0,0,0,0,0,0,0,0,0,0,0,0,0,0,0
</data>
 </layer>
 <objectgroup id="2" name="Building">
  <object id="16" gid="79" x="176" y="208" width="16" height="48">
   <properties>
    <property name="Destructible" type="bool" value="true"/>
   </properties>
  </object>
  <object id="18" gid="81" x="48" y="144" width="16" height="16"/>
  <object id="19" gid="4" x="32" y="144" width="16" height="16">
   <properties>
    <property name="Block" type="bool" value="true"/>
   </properties>
  </object>
  <object id="20" gid="4" x="176" y="144" width="16" height="16">
   <properties>
    <property name="Block" type="bool" value="true"/>
   </properties>
  </object>
  <object id="21" gid="83" x="80" y="176" width="32" height="32">
   <properties>
    <property name="Destructible" type="bool" value="true"/>
   </properties>
  </object>
  <object id="24" gid="67" x="128" y="176" width="32" height="32">
   <properties>
    <property name="Destructible" type="bool" value="true"/>
   </properties>
  </object>
 </objectgroup>
</map>
