<?xml version="1.0" encoding="UTF-8"?>
<map version="1.10" tiledversion="1.12.2" orientation="orthogonal" renderorder="right-down" width="16" height="16" tilewidth="16" tileheight="16" infinite="0" nextlayerid="5" nextobjectid="22">
 <tileset firstgid="1" source="../tilesets/terrain.tsx"/>
 <tileset firstgid="67" source="../tilesets/building_1.tsx"/>
 <tileset firstgid="69" source="../tilesets/unit_1.tsx"/>
 <tileset firstgid="71" source="../tilesets/unit_3.tsx"/>
 <tileset firstgid="73" source="../tilesets/spacebodies.tsx"/>
 <tileset firstgid="79" source="../tilesets/unit_2.tsx"/>
 <tileset firstgid="83" source="../tilesets/truck_loaded.tsx"/>
 <objectgroup id="4" name="Space">
  <object id="5" gid="76" x="16" y="32" width="16" height="16"/>
  <object id="6" gid="78" x="48" y="192" width="16" height="16"/>
  <object id="9" gid="74" x="208" y="192" width="16" height="16"/>
 </objectgroup>
 <layer id="1" name="Terrain_1" width="16" height="16">
  <data encoding="csv">
0,0,0,0,0,0,0,0,0,0,0,0,0,0,0,0,
0,0,0,0,0,0,0,0,0,0,0,0,0,0,0,0,
0,0,7,7,7,7,7,7,7,7,7,0,0,0,0,0,
0,6,1,25,4,13,5,5,5,5,5,20,7,0,0,0,
0,6,5,5,5,29,4,4,4,26,5,5,5,8,0,0,
0,10,9,9,30,3,5,5,5,2,5,5,5,8,0,0,
0,0,0,0,6,3,5,5,5,5,5,5,5,20,0,0,
0,7,7,7,19,3,5,5,5,5,5,5,5,5,8,0,
6,25,4,0,4,18,4,4,4,4,4,17,4,0,8,0,
10,9,9,9,9,9,9,30,5,5,5,3,31,9,11,0,
0,0,0,0,0,0,0,6,5,5,5,3,8,0,0,0,
0,0,0,0,0,0,0,6,5,5,1,3,8,0,0,0,
0,0,0,0,0,0,0,6,5,5,5,3,8,0,0,0,
0,0,0,0,0,0,0,10,9,30,2,3,8,0,0,0,
0,0,0,0,0,0,0,0,0,10,30,27,8,0,0,0,
0,0,0,0,0,0,0,0,0,0,10,9,11,0,0,0
</data>
 </layer>
 <layer id="3" name="Terrain_2" width="16" height="16">
  <data encoding="csv">
0,0,0,0,0,0,0,0,0,0,0,0,0,0,0,0,
0,0,0,0,0,0,0,0,0,0,0,0,0,0,0,0,
0,0,0,0,0,0,0,0,0,0,0,0,0,0,0,0,
0,0,0,0,0,0,0,7,7,7,0,0,0,0,0,0,
0,0,0,0,0,0,0,0,0,0,20,0,0,0,0,0,
0,0,0,0,0,0,6,0,0,0,0,8,0,0,0,0,
0,0,0,0,0,0,10,9,9,9,9,11,0,0,0,0,
0,0,0,0,0,0,0,0,0,0,0,0,0,0,0,0,
0,0,0,0,0,0,0,0,0,0,0,0,0,0,0,0,
0,0,0,0,0,0,0,0,0,0,0,0,0,0,0,0,
0,0,0,0,0,0,0,0,0,0,0,0,0,0,0,0,
0,0,0,0,0,0,0,0,0,0,0,0,0,0,0,0,
0,0,0,0,0,0,0,0,0,0,0,0,0,0,0,0,
0,0,0,0,0,0,0,0,0,0,0,0,0,0,0,0,
0,0,0,0,0,0,0,0,0,0,0,0,0,0,0,0,
0,0,0,0,0,0,0,0,0,0,0,0,0,0,0,0
</data>
 </layer>
 <objectgroup id="2" name="Building">
  <object id="3" gid="71" x="64" y="80" width="16" height="16">
   <properties>
    <property name="Destructible" type="bool" value="true"/>
   </properties>
  </object>
  <object id="4" gid="71" x="32" y="80" width="16" height="16">
   <properties>
    <property name="Destructible" type="bool" value="true"/>
   </properties>
  </object>
  <object id="10" gid="79" x="144" y="208" width="16" height="16">
   <properties>
    <property name="Destructible" type="bool" value="true"/>
   </properties>
  </object>
  <object id="11" gid="84" x="96" y="144" width="16" height="16"/>
  <object id="12" gid="83" x="80" y="144" width="16" height="16"/>
  <object id="13" gid="83" x="64" y="144" width="16" height="16"/>
  <object id="16" gid="4" x="48" y="144" width="16" height="16">
   <properties>
    <property name="Block" type="bool" value="true"/>
   </properties>
  </object>
  <object id="17" gid="26" x="208" y="144" width="16" height="16">
   <properties>
    <property name="Block" type="bool" value="true"/>
   </properties>
  </object>
  <object id="18" gid="79" x="128" y="208" width="16" height="16">
   <properties>
    <property name="Destructible" type="bool" value="true"/>
   </properties>
  </object>
  <object id="19" gid="67" x="128" y="176" width="32" height="32">
   <properties>
    <property name="Destructible" type="bool" value="true"/>
   </properties>
  </object>
  <object id="20" gid="71" x="112" y="96" width="16" height="16">
   <properties>
    <property name="Destructible" type="bool" value="true"/>
   </properties>
  </object>
  <object id="21" gid="71" x="160" y="96" width="16" height="16">
   <properties>
    <property name="Destructible" type="bool" value="true"/>
   </properties>
  </object>
 </objectgroup>
</map>
