<?xml version="1.0" encoding="UTF-8"?>
<map version="1.10" tiledversion="1.12.2" orientation="orthogonal" renderorder="right-down" width="16" height="16" tilewidth="16" tileheight="16" infinite="0" nextlayerid="5" nextobjectid="14">
 <tileset firstgid="1" source="../tilesets/terrain.tsx"/>
 <tileset firstgid="67" source="../tilesets/building_1.tsx"/>
 <tileset firstgid="69" source="../tilesets/unit_1.tsx"/>
 <tileset firstgid="71" source="../tilesets/unit_3.tsx"/>
 <tileset firstgid="73" source="../tilesets/spacebodies.tsx"/>
 <tileset firstgid="79" source="../tilesets/unit_4.tsx"/>
 <tileset firstgid="83" source="../tilesets/tank.tsx"/>
 <objectgroup id="4" name="Space">
  <object id="5" gid="76" x="16" y="16" width="16" height="16"/>
  <object id="6" gid="78" x="32" y="224" width="16" height="16"/>
  <object id="9" gid="74" x="224" y="80" width="16" height="16"/>
 </objectgroup>
 <layer id="1" name="Terrain_1" width="16" height="16">
  <data encoding="csv">
0,0,0,0,0,0,0,0,0,0,0,0,0,0,0,0,
0,0,0,0,0,0,0,0,0,0,0,0,0,0,0,0,
0,0,0,0,0,0,0,0,0,0,0,0,0,0,0,0,
0,0,0,0,0,0,0,0,0,0,0,7,7,0,0,0,
0,0,0,0,0,0,0,0,0,0,6,5,5,8,0,0,
0,0,0,0,0,0,0,0,0,0,10,30,2,8,0,0,
0,0,0,0,0,0,0,0,0,0,0,10,9,11,0,0,
0,0,0,0,0,0,0,0,0,0,0,0,0,0,0,0,
0,0,0,0,0,0,0,0,0,0,0,0,0,0,0,0,
0,0,0,0,0,0,0,0,0,0,0,0,0,0,0,0,
0,0,0,0,0,0,0,0,0,0,0,0,0,0,0,0,
0,0,0,0,0,0,0,0,0,0,0,0,0,0,0,0,
0,0,0,0,0,0,0,0,0,0,0,0,0,0,0,0,
0,0,0,0,0,0,0,0,0,0,0,0,0,0,0,0,
0,0,0,0,0,0,0,0,0,0,0,0,0,0,0,0,
0,0,0,0,0,0,0,0,0,0,0,0,0,0,0,0
</data>
 </layer>
 <layer id="3" name="Terrain_2" width="16" height="16">
  <data encoding="csv">
0,0,0,0,0,0,0,0,0,0,0,0,0,0,0,0,
0,0,0,0,0,0,0,0,0,0,0,0,0,0,0,0,
0,0,0,0,0,0,0,0,0,0,0,0,0,0,0,0,
0,0,0,0,0,0,0,0,0,0,0,0,0,0,0,0,
0,0,0,0,0,0,0,0,0,0,0,0,0,0,0,0,
0,0,0,0,0,0,0,0,0,0,0,0,0,0,0,0,
0,0,0,0,0,0,0,0,0,0,0,0,0,0,0,0,
0,0,0,0,0,0,0,0,0,0,0,0,0,0,0,0,
0,0,0,0,0,0,0,0,0,0,0,0,0,0,0,0,
0,0,0,0,0,0,0,0,0,0,0,0,0,0,0,0,
0,0,0,0,0,0,0,0,0,0,0,0,0,0,0,0,
0,0,0,0,0,0,0,0,0,0,0,0,0,0,0,0,
0,0,0,0,0,0,0,0,0,0,0,0,0,0,0,0,
0,0,0,0,0,0,0,0,0,0,0,0,0,0,0,0,
0,0,0,0,0,0,0,0,0,0,0,0,0,0,0,0,
0,0,0,0,0,0,0,0,0,0,0,0,0,0,0,0
</data>
 </layer>
 <objectgroup id="2" name="Building">
  <properties>
   <property name="Block" type="bool" value="true"/>
  </properties>
  <object id="10" gid="79" x="192" y="80" width="16" height="16"/>
 </objectgroup>
</map>
